X:297
T: Humors of Ross
N: O'Farrell's Pocket Companion v.3 (Sky ed. p.133)
M: 6/8
L: 1/8
R: jig
Q: 320
K: G
d/c/|: BGB GBG| BGB Bdc| BGB BGB| AFA ABc|
BGB GBG| BGB BdB| c2c cec| AFA ABc :|
P:2
Bdd d2e| dBG ABc| Bdd d2B| AFA ABc|
Bdd dge| dBG BdB| cec BdB| AFA ABc :|
P:3
BGG BGd| BGG ABc| BGG BGd| AFA ABc|
BGG dGG| BGG BdB| cec BdB| AFA ABc :|
P:4
Bdd dBG| dBG ABc| Bdd dcB| AFA ABc|
d2d d2e| dBG BdB| cec BdB| AFA ABc :|
